X: 25658
T: Martin Rochford's
R: reel
M: 4/4
K: Fmajor
EFFE FGAB|=BcAG Ad~d2|cAGA EFFd|cAGc AD ~D2|
FACD FGAc|~c2 AG Ad~d2|cAGA F3d|cAGc AD~D2||
effd edce|dAAG Acde|efdf edcA|cAGc AD~D2|
effd edce|dAAG (3)A=Bc de|fage fedA|cAGc ACDE||

